packages/symbols/svgs/solid/right-from-bracket-solid.svg

<svg width="16" height="16" viewBox="0 0 16 16" xmlns="http://www.w3.org/2000/svg"><path fill-rule="evenodd" clip-rule="evenodd" d="M3 14h9v2H2a1 1 0 0 1-1-1V1a1 1 0 0 1 1-1h10v2H3v12Zm12.414-6L11 12.414 9.586 11l2-2H5V7h6.586l-2-2L11 3.586 15.414 8Z"/></svg>

<svg width="16" height="16" viewBox="0 0 16 16" fill="none" xmlns="http://www.w3.org/2000/svg">
<path fill-rule="evenodd" clip-rule="evenodd" d="M3 14H12V16H2C1.448 16 1 15.552 1 15V1C1 0.448 1.448 0 2 0H12V2H3V14ZM15.414 8L11 12.414L9.586 11L11.586 9H5V7H11.586L9.586 5L11 3.586L15.414 8Z" fill="black"/>
</svg>
